X: 32301
T: Pigeon On The Gate, The
R: reel
M: 4/4
K: Edorian
BEE2 BdcA|BABd dAFA|D2FD ADFD|FA3 BAFA|
BE3 dE3|BABd dAFA|D2FA dfec|dBAF E2FA:|
Beed efed|B/c/def gfed|BABc dfdB|A2FA DAFA|
Beed efed|B/c/def gefg|afge fdef|dBAF E3 A:|

